assets/svg/icon_block_copy_1.svg

<svg width="24" height="24" viewBox="0 0 24 24" fill="none" xmlns="http://www.w3.org/2000/svg">
<path d="M16.498 13.1621C16.498 15.5191 16.498 16.6976 15.7658 17.4299C15.0336 18.1621 13.8551 18.1621 11.498 18.1621H8.99805C6.64105 18.1621 5.46255 18.1621 4.7303 17.4299C3.99805 16.6976 3.99805 15.5191 3.99805 13.1621V8.99544C3.99805 6.63844 3.99805 5.45994 4.7303 4.72769C5.46255 3.99544 6.64105 3.99544 8.99805 3.99544H11.498C13.8551 3.99544 15.0336 3.99544 15.7658 4.72769C16.498 5.45994 16.498 6.63844 16.498 8.99544V13.1621Z" stroke="white" stroke-width="1.25"/>
<path d="M16.498 6.49544C17.8788 6.49544 18.998 7.61469 18.998 8.99544V13.9954C18.998 17.1381 18.998 18.7095 18.0217 19.6858C17.0454 20.6621 15.4741 20.6621 12.3314 20.6621H8.99805C7.6173 20.6621 6.49805 19.5428 6.49805 18.1621" stroke="white" stroke-width="1.25"/>
</svg>

<svg xmlns="http://www.w3.org/2000/svg" width="24" height="24" fill="none"><path stroke="#fff" stroke-width="1.25" d="M16.498 13.162c0 2.357 0 3.536-.732 4.268s-1.91.732-4.268.732h-2.5c-2.357 0-3.535 0-4.268-.732s-.732-1.91-.732-4.268V8.995c0-2.357 0-3.535.732-4.267.733-.733 1.911-.733 4.268-.733h2.5c2.357 0 3.536 0 4.268.733.732.732.732 1.91.732 4.267z"/><path stroke="#fff" stroke-width="1.25" d="M16.498 6.495a2.5 2.5 0 0 1 2.5 2.5v5c0 3.143 0 4.714-.976 5.69-.977.977-2.548.977-5.69.977H8.997a2.5 2.5 0 0 1-2.5-2.5"/></svg>
